priv/static/svgs/icons_new/security-passport-alert.svg

<svg width="32" height="32" viewBox="0 0 32 32" fill="none" xmlns="http://www.w3.org/2000/svg">
<path d="M7.26536 15.9107V27.3491C7.29527 27.6496 7.43649 27.9279 7.66126 28.1295C7.88603 28.3311 8.1781 28.4413 8.48002 28.4385H25.9099C26.0465 28.4354 26.1809 28.4041 26.3048 28.3466C26.4287 28.2892 26.5394 28.2067 26.6299 28.1044C26.7204 28.0021 26.7889 27.8822 26.8309 27.7523C26.8729 27.6223 26.8876 27.485 26.874 27.3491V15.9107M7.26536 15.9107H26.874M7.26536 15.9107L6.90833 14.1548M26.874 15.9107L27.9902 7.16126C28.0138 7.08654 28.0198 7.00735 28.0076 6.92993C27.9955 6.8525 27.9655 6.77896 27.9201 6.71508C27.8747 6.6512 27.8151 6.59873 27.746 6.56179C27.6768 6.52485 27.6001 6.50445 27.5218 6.5022L11.7778 6.5022M12.1676 22.9915C12.6009 22.9915 13.0166 22.8193 13.323 22.5129C13.6294 22.2064 13.8016 21.7908 13.8016 21.3574V20.8127C13.8016 20.3794 13.6294 19.9637 13.323 19.6573C13.0166 19.3508 12.6009 19.1787 12.1676 19.1787C11.7342 19.1787 11.3186 19.3508 11.0121 19.6573C10.7057 19.9637 10.5335 20.3794 10.5335 20.8127V21.3574C10.5335 21.7908 10.7057 22.2064 11.0121 22.5129C11.3186 22.8193 11.7342 22.9915 12.1676 22.9915ZM12.1676 22.9915C13.0935 22.9915 14.891 23.449 14.891 24.6255V25.7149M12.1676 22.9915C11.2416 22.9915 9.44413 23.449 9.44413 24.6255V25.7149M16.525 19.1787H18.1542M16.525 20.8127H19.5159M21.4272 20.8127H24.418M13.2569 13.1871H20.3378M16.525 23.5362H18.1542M16.5201 25.1702H19.2435M21.4272 25.1702H24.418" stroke="black" stroke-miterlimit="10" stroke-linecap="round"/>
<path d="M6.6206 5.24348L6.62061 8.57681M6.62061 10.2261V10.8684M1.62061 8.25638V4.93091C1.62061 3.5502 2.73989 2.43091 4.12061 2.43091H9.12061C10.5013 2.43091 11.6206 3.5502 11.6206 4.93091V8.25638C11.6206 10.5028 10.073 12.3983 7.99948 13.6218C7.1495 14.1234 6.09171 14.1234 5.24174 13.6218C3.1682 12.3983 1.62061 10.5028 1.62061 8.25638Z" stroke="black" stroke-width="0.833333" stroke-linecap="round"/>
</svg>

<svg width="32" height="32" viewBox="0 0 32 32" fill="none" xmlns="http://www.w3.org/2000/svg">
  <symbol id="item" viewBox="0 0 32 32" stroke-width="1" fill="none">
    <path d="M7.265 15.91v11.44a1.21 1.21 0 0 0 1.215 1.088h17.43a.991.991 0 0 0 .964-1.089V15.911m-19.609 0h19.609m-19.609 0-.357-1.756m19.966 1.756 1.116-8.75a.506.506 0 0 0-.468-.659H11.778m.39 16.49a1.634 1.634 0 0 0 1.634-1.635v-.544a1.634 1.634 0 0 0-3.268 0v.544a1.634 1.634 0 0 0 1.634 1.634Zm0 0c.926 0 2.723.457 2.723 1.633v1.09m-2.723-2.724c-.926 0-2.724.458-2.724 1.634v1.09m7.081-6.536h1.63m-1.63 1.634h2.99m1.912 0h2.991m-11.161-7.626h7.08m-3.812 10.35h1.63M16.52 25.17h2.724m2.183 0h2.991" stroke="currentColor" stroke-miterlimit="10" stroke-linecap="round"/><path d="m5.242 13.622.211-.359-.211.359Zm2.757 0-.211-.359.211.359Zm-.962-8.379a.417.417 0 0 0-.833 0h.833Zm-.833 3.334a.417.417 0 1 0 .833 0h-.833Zm.833 1.65a.417.417 0 0 0-.833 0h.833Zm-.833.641a.417.417 0 0 0 .833 0h-.833ZM4.12 2.848h5v-.834h-5v.834Zm7.083 2.083v3.325h.833V4.931h-.833ZM2.037 8.256V4.931h-.833v3.325h.833Zm3.416 5.007c-2.006-1.184-3.416-2.966-3.416-5.007h-.833c0 2.452 1.685 4.461 3.826 5.725l.423-.718Zm5.75-5.007c0 2.041-1.409 3.823-3.415 5.007l.423.718c2.141-1.264 3.826-3.273 3.826-5.725h-.833ZM5.03 13.981c.98.578 2.2.578 3.181 0l-.423-.718a2.299 2.299 0 0 1-2.335 0l-.423.718ZM9.12 2.848c1.151 0 2.084.932 2.084 2.083h.833a2.917 2.917 0 0 0-2.916-2.917v.834Zm-5-.834a2.917 2.917 0 0 0-2.916 2.917h.833c0-1.15.933-2.083 2.084-2.083v-.834Zm2.084 3.23v3.333h.833V5.243h-.833Zm0 4.982v.642h.833v-.642h-.833Z" fill="currentColor"/>
  </symbol>
</svg>
